gtk-icons/Papirus-GTK/48x48/apps/preferences-desktop-notification-bell.svg

<?xml version="1.0" encoding="UTF-8" standalone="no"?>
<svg
   xmlns:dc="http://purl.org/dc/elements/1.1/"
   xmlns:cc="http://creativecommons.org/ns#"
   xmlns:rdf="http://www.w3.org/1999/02/22-rdf-syntax-ns#"
   xmlns:svg="http://www.w3.org/2000/svg"
   xmlns="http://www.w3.org/2000/svg"
   xmlns:sodipodi="http://sodipodi.sourceforge.net/DTD/sodipodi-0.dtd"
   xmlns:inkscape="http://www.inkscape.org/namespaces/inkscape"
   width="48"
   viewBox="0 0 48 48"
   height="48"
   id="svg3067"
   version="1.1"
   inkscape:version="0.91 r"
   sodipodi:docname="preferences-desktop-notification-bell.svg">
  <metadata
     id="metadata3077">
    <rdf:RDF>
      <cc:Work
         rdf:about="">
        <dc:format>image/svg+xml</dc:format>
        <dc:type
           rdf:resource="http://purl.org/dc/dcmitype/StillImage" />
        <dc:title></dc:title>
      </cc:Work>
    </rdf:RDF>
  </metadata>
  <defs
     id="defs3075" />
  <sodipodi:namedview
     pagecolor="#ffffff"
     bordercolor="#666666"
     borderopacity="1"
     objecttolerance="10"
     gridtolerance="10"
     guidetolerance="10"
     inkscape:pageopacity="0"
     inkscape:pageshadow="2"
     inkscape:window-width="1547"
     inkscape:window-height="876"
     id="namedview3073"
     showgrid="false"
     inkscape:zoom="1"
     inkscape:cx="27.815888"
     inkscape:cy="20.314733"
     inkscape:window-x="53"
     inkscape:window-y="24"
     inkscape:window-maximized="1"
     inkscape:current-layer="svg3067">
    <inkscape:grid
       type="xygrid"
       id="grid4140" />
  </sodipodi:namedview>
  <path
     style="fill:#efb055;fill-opacity:1"
     d="M 8.8149262,24.575758 C 8.8149262,32.889423 -1.3084563,39 7.8025877,39 L 40.197412,39 C 49.308457,39 39.185074,32.889423 39.185074,24.575758 39.185074,15.30303 35.135721,5 24,5 12.86428,5 8.8149262,15.30303 8.8149262,24.575758 Z"
     id="path4137"
     inkscape:connector-curvature="0"
     sodipodi:nodetypes="sccszs" />
  <path
     style="fill:#ce903c;fill-opacity:1"
     d="m 17,39 c 1.034159,2.316696 3.761157,4 7,4 3.238844,0 5.965841,-1.683304 7,-4 l -14,0 z"
     id="path4135"
     inkscape:connector-curvature="0" />
  <path
     style="fill:#ffffff;fill-opacity:1;opacity:0.1"
     d="M 24 5 C 12.86428 5 8.8144531 15.303444 8.8144531 24.576172 C 8.8144531 30.722272 3.2897619 35.661092 4.0859375 37.820312 C 4.6613634 35.333221 8.8144531 30.914523 8.8144531 25.576172 C 8.8144531 16.303444 12.86428 6 24 6 C 35.135721 6 39.185547 16.303444 39.185547 25.576172 C 39.185547 30.914523 43.338637 35.333221 43.914062 37.820312 C 44.710238 35.661092 39.185547 30.722272 39.185547 24.576172 C 39.185547 15.303444 35.135721 5 24 5 z "
     id="path4148" />
  <path
     style="fill:#000000;fill-opacity:1;opacity:0.3"
     d="M 4.0859375 36.820312 C 3.7652256 38.206486 4.5420526 39 7.8027344 39 L 40.197266 39 C 43.457948 39 44.234774 38.206486 43.914062 36.820312 C 43.633273 37.581812 42.572726 38 40.197266 38 L 7.8027344 38 C 5.4272739 38 4.3667274 37.581812 4.0859375 36.820312 z "
     id="path4153" />
  <path
     style="fill:#000000;fill-opacity:1;opacity:0.3"
     d="M 17 39 C 18.034159 41.316696 20.761157 43 24 43 C 27.238844 43 29.965841 41.316696 31 39 L 30.40625 39 C 29.116546 40.782432 26.748164 42 24 42 C 21.251837 42 18.883454 40.782432 17.59375 39 L 17 39 z "
     id="path4158" />
</svg>

<?xml version="1.0" encoding="UTF-8" standalone="no"?>
<svg id="svg3067" xmlns:rdf="http://www.w3.org/1999/02/22-rdf-syntax-ns#" xmlns="http://www.w3.org/2000/svg" height="48" width="48" version="1.1" xmlns:cc="http://creativecommons.org/ns#" xmlns:dc="http://purl.org/dc/elements/1.1/" viewBox="0 0 48 48">
 <metadata id="metadata3077">
  <rdf:RDF>
   <cc:Work rdf:about="">
    <dc:format>image/svg+xml</dc:format>
    <dc:type rdf:resource="http://purl.org/dc/dcmitype/StillImage"/>
    <dc:title/>
   </cc:Work>
  </rdf:RDF>
 </metadata>
 <path id="path4137" d="m8.8149 24.576c0 8.313-10.123 14.424-1.0123 14.424h32.394c9.111 0-1.012-6.111-1.012-14.424 0-9.273-4.049-19.576-15.185-19.576s-15.185 10.303-15.185 19.576z" fill="#efb055"/>
 <path id="path4135" fill="#ce903c" d="m17 39c1.0342 2.3167 3.7612 4 7 4s5.9658-1.6833 7-4h-14z"/>
 <path id="path4148" opacity=".1" d="m24 5c-11.136 0-15.186 10.303-15.186 19.576 0.0005 6.146-5.5242 11.085-4.7281 13.244 0.5755-2.487 4.7286-6.905 4.7286-12.244 0-9.273 4.0495-19.576 15.186-19.576s15.186 10.303 15.186 19.576c0 5.339 4.153 9.757 4.728 12.244 0.796-2.159-4.728-7.098-4.728-13.244 0-9.273-4.05-19.576-15.186-19.576z" fill="#fff"/>
 <path id="path4153" opacity=".3" d="m4.0859 36.82c-0.3207 1.386 0.4562 2.18 3.7168 2.18h32.394c3.261 0 4.038-0.794 3.717-2.18-0.281 0.762-1.341 1.18-3.717 1.18h-32.394c-2.3757 0-3.4363-0.418-3.7171-1.18z"/>
 <path id="path4158" opacity=".3" d="m17 39c1.034 2.317 3.761 4 7 4s5.966-1.683 7-4h-0.594c-1.289 1.782-3.658 3-6.406 3s-5.117-1.218-6.406-3h-0.594z"/>
</svg>
